**harmony	**harte	**kern	**silbe	**kern	**silbe	**rhyme	**timestamp	**phrase	**leadinstrument
*M4/4	*M4/4	*ICvox	*	*ICvox	*	*	*	*	*
*	*	*VRlead	*	*VRresponse	*	*	*	*	*
*	*	*Hstimme	*	*Nstimme	*	*	*	*	*
*b:	*b:	*b:	*	*b:	*	*	*b:	*b:	*b:
*	*	*M4/4	*	*M4/4	*	*	*	*	*
*	*	*clefF4	*	*clefG2	*	*	*	*	*
1r;	1r	r;	.	r;	.	.	0	.	r
=1	=1	=1	=1	=1	=1	=1	=1	=1	=1
*>Label>Intro	*>Label>Intro	*>Label>Intro	*>Label>Intro	*>Label>Intro	*>Label>Intro	*>Label>Intro	*>Label>Intro	*>Label>Intro	*>Label>Intro
1Bm	B:min (B D F#)	1r	.	1r	.	.	2.001	newline	r
=2	=2	=2	=2	=2	=2	=2	=2	=2	=2
1Bm	B:min	1r	.	1r	.	.	3.63	.	r
=3	=3	=3	=3	=3	=3	=3	=3	=3	=3
1Bm	B:min	1r	.	1r	.	.	5.26	.	r
=4	=4	=4	=4	=4	=4	=4	=4	=4	=4
1Bm	B:min	1r	.	1r	.	.	6.889	.	r
=5	=5	=5	=5	=5	=5	=5	=5	=5	=5
1Bm	B:min	1r	.	1r	.	.	8.519	newline	guitar
=6	=6	=6	=6	=6	=6	=6	=6	=6	=6
1Bm	B:min	1r	.	1r	.	.	10.136	.	guitar
=7	=7	=7	=7	=7	=7	=7	=7	=7	=7
1EM	E:maj	1r	.	1r	.	.	11.753	.	guitar
=8	=8	=8	=8	=8	=8	=8	=8	=8	=8
1DM	D:maj	1r	.	1r	.	.	13.37	.	guitar
=9	=9	=9	=9	=9	=9	=9	=9	=9	=9
1Bm	B:min	1r	.	1r	.	.	14.987	newline	guitar
=10	=10	=10	=10	=10	=10	=10	=10	=10	=10
1Bm	B:min	1r	.	1r	.	.	16.627	.	guitar
=11	=11	=11	=11	=11	=11	=11	=11	=11	=11
1DM	D:maj	1r	.	1r	.	.	18.267	.	guitar
=12	=12	=12	=12	=12	=12	=12	=12	=12	=12
1EM	E:maj	1r	.	1r	.	.	19.906	.	guitar
=13	=13	=13	=13	=13	=13	=13	=13	=13	=13
1Bmm	B:min7	1r	.	1r	.	.	21.546	newline	guitar
=14	=14	=14	=14	=14	=14	=14	=14	=14	=14
1Bmm	B:min7	1r	.	1r	.	.	23.173	.	guitar
=15	=15	=15	=15	=15	=15	=15	=15	=15	=15
1Bm	B:min	1r	.	1r	.	.	24.801	.	guitar
=16	=16	=16	=16	=16	=16	=16	=16	=16	=16
1Bm	B:min	1r	.	1r	.	.	26.428	.	guitar
=17	=17	=17	=17	=17	=17	=17	=17	=17	=17
*>Letter>A	*>Letter>A	*>Letter>A	*>Letter>A	*>Letter>A	*>Letter>A	*>Letter>A	*>Letter>A	*>Letter>A	*>Letter>A
*>Label>Verse	*>Label>Verse	*>Label>Verse	*>Label>Verse	*>Label>Verse	*>Label>Verse	*>Label>Verse	*>Label>Verse	*>Label>Verse	*>Label>Verse
1Bm	B:5	4BB	Hey	1r	.	.	28.056	newline	voice
.	.	8D	li-	.	.	.	.	.	.
.	.	8D	-ttle	.	.	.	.	.	.
.	.	4F#	sis-	.	.	.	.	.	.
.	.	8F#	-ter	.	.	.	.	.	.
.	.	[8BB	what	.	.	.	.	.	.
=18	=18	=18	=18	=18	=18	=18	=18	=18	=18
1Bm	B:5	8BB]	_	1r	.	.	29.692	.	voice
.	.	4D	have	.	.	.	.	.	.
.	.	4F#	you	.	.	.	.	.	.
.	.	[4.E	done?.	.	.	A	.	.	.
=19	=19	=19	=19	=19	=19	=19	=19	=19	=19
1AM	A:5	2E]	_	1r	.	.	31.328	.	voice
.	.	2r	.	.	.	.	.	.	.
=20	=20	=20	=20	=20	=20	=20	=20	=20	=20
1EM	E:5	1r	.	1r	.	.	32.965	.	voice
=21	=21	=21	=21	=21	=21	=21	=21	=21	=21
1Bm	B:5	4BB	Hey	1r	.	.	34.601	newline	voice
.	.	8D	li-	.	.	.	.	.	.
.	.	8D	-ttle	.	.	.	.	.	.
.	.	4F#	sis-	.	.	.	.	.	.
.	.	8F#	-ter	.	.	.	.	.	.
.	.	[8A	who's	.	.	.	.	.	.
=22	=22	=22	=22	=22	=22	=22	=22	=22	=22
1Bm	B:5	8A]	_	1r	.	.	36.224	.	voice
.	.	4F#	the	.	.	.	.	.	.
.	.	4E	on-	.	.	.	.	.	.
.	.	8F#	-ly	.	.	.	.	.	.
.	.	[4F#	one?.	.	.	A	.	.	.
=23	=23	=23	=23	=23	=23	=23	=23	=23	=23
1AM	A:5	2F#]	_	1r	.	.	37.847	.	voice
.	.	2r	.	.	.	.	.	.	.
=24	=24	=24	=24	=24	=24	=24	=24	=24	=24
1EM	E:5	1r	.	1r	.	.	39.47	.	voice
=25	=25	=25	=25	=25	=25	=25	=25	=25	=25
1Bm	B:5	4BB	Hey	1r	.	.	41.093	newline	voice
.	.	8D	li-	.	.	.	.	.	.
.	.	8D	-ttle	.	.	.	.	.	.
.	.	4F#	sis-	.	.	.	.	.	.
.	.	8F#	-ter	.	.	.	.	.	.
.	.	[8A	who's	.	.	.	.	.	.
=26	=26	=26	=26	=26	=26	=26	=26	=26	=26
1Bm	B:5	8A]	_	1r	.	.	42.709	.	voice
.	.	4F#	your	.	.	.	.	.	.
.	.	4E	su-	.	.	.	.	.	.
.	.	8F#	-per-	.	.	.	.	.	.
.	.	4F#	-man?.	.	.	.	.	.	.
=27	=27	=27	=27	=27	=27	=27	=27	=27	=27
1AM	A:5	4BB	Hey	1r	.	.	44.325	.	voice
.	.	8D	li-	.	.	.	.	.	.
.	.	8D	-ttle	.	.	.	.	.	.
.	.	4F#	sis-	.	.	.	.	.	.
.	.	8F#	-ter	.	.	.	.	.	.
.	.	[8A	who's	.	.	.	.	.	.
=28	=28	=28	=28	=28	=28	=28	=28	=28	=28
1AM	A:5	8A]	_	1r	.	.	45.94	.	voice
.	.	4F#	the	.	.	.	.	.	.
.	.	4E	one	.	.	.	.	.	.
.	.	8F#	we	.	.	.	.	.	.
.	.	4BB	want?.	.	.	A	.	.	.
=29	=29	=29	=29	=29	=29	=29	=29	=29	=29
1Bm	B:5	4BB	Hey	1r	.	.	47.556	newline	voice
.	.	8D	li-	.	.	.	.	.	.
.	.	8D	-ttle	.	.	.	.	.	.
.	.	4F#	sis-	.	.	.	.	.	.
.	.	8F#	-ter	.	.	.	.	.	.
.	.	[8A	shot-	.	.	.	.	.	.
=30	=30	=30	=30	=30	=30	=30	=30	=30	=30
1Bm	B:5	8A]	_	1r	.	.	49.194	.	voice
.	.	8F#	-gun.	.	.	A	.	.	.
.	.	2r	.	.	.	.	.	.	.
.	.	8BB	It's	.	.	.	.	.	.
.	.	8BB	a	.	.	.	.	.	.
=31	=31	=31	=31	=31	=31	=31	=31	=31	=31
1AM	A:maj	4r	.	1r	.	.	50.833	.	voice
.	.	4D	nice	.	.	.	.	.	.
.	.	4D	day	.	.	.	.	.	.
.	.	4BB	to	.	.	.	.	.	.
=32	=32	=32	=32	=32	=32	=32	=32	=32	=32
1EM	E:maj	4r	.	1r	.	.	52.471	.	voice
.	.	8r	.	.	.	.	.	.	.
.	.	4A	start	.	.	.	.	.	.
.	.	8F#	a-	.	.	.	.	.	.
.	.	8E	-gain.	.	.	.	.	.	.
.	.	[8F#	_	.	.	.	.	.	.
=33	=33	=33	=33	=33	=33	=33	=33	=33	=33
1Bm	B:min	4F#]	_	1r	.	.	54.109	newline	voice
.	.	2r	.	.	.	.	.	.	.
.	.	4r	.	.	.	.	.	.	.
=34	=34	=34	=34	=34	=34	=34	=34	=34	=34
1Bm	B:min	2r	.	1r	.	.	55.721	.	voice
.	.	4r	.	.	.	.	.	.	.
.	.	8D	It's	.	.	.	.	.	.
.	.	8BB	a	.	.	.	.	.	.
=35	=35	=35	=35	=35	=35	=35	=35	=35	=35
1EM	E:maj	4r	.	1r	.	.	57.334	.	voice
.	.	4D	nice	.	.	.	.	.	.
.	.	4D	day	.	.	.	.	.	.
.	.	8BB	for	.	.	.	.	.	.
.	.	8BB	a	.	.	.	.	.	.
=36	=36	=36	=36	=36	=36	=36	=36	=36	=36
1DM	D:maj	4r	.	1r	.	.	58.947	.	voice
.	.	4D	white	.	.	.	.	.	.
.	.	8D	wed-	.	.	.	.	.	.
.	.	[4.D	-ding.	.	.	.	.	.	.
=37	=37	=37	=37	=37	=37	=37	=37	=37	=37
1Bm	B:min	2D]	_	1r	.	.	60.559	newline	voice
.	.	2r	.	.	.	.	.	.	.
=38	=38	=38	=38	=38	=38	=38	=38	=38	=38
1Bm	B:min	2r	.	1r	.	.	62.212	.	voice
.	.	4r	.	.	.	.	.	.	.
.	.	8D	It's	.	.	.	.	.	.
.	.	8BB	a	.	.	.	.	.	.
=39	=39	=39	=39	=39	=39	=39	=39	=39	=39
1EM	E:maj	4r	.	1r	.	.	63.864	.	voice
.	.	4D	nice	.	.	.	.	.	.
.	.	4D#	day	.	.	.	.	.	.
.	.	4BB	to	.	.	.	.	.	.
=40	=40	=40	=40	=40	=40	=40	=40	=40	=40
1DM	D:maj	4r	.	1r	.	.	65.516	.	voice
.	.	8r	.	.	.	.	.	.	.
.	.	4A	start	.	.	.	.	.	.
.	.	8F#	a-	.	.	.	.	.	.
.	.	8E	-gain.	.	.	.	.	.	.
.	.	[8F#	_	.	.	.	.	.	.
=41	=41	=41	=41	=41	=41	=41	=41	=41	=41
1Bm	B:min	2.F#]	_	1r	.	.	67.169	newline	voice
.	.	4r	.	.	.	.	.	.	.
=42	=42	=42	=42	=42	=42	=42	=42	=42	=42
1Bm	B:min	1r	.	1r	.	.	68.786	.	voice
=43	=43	=43	=43	=43	=43	=43	=43	=43	=43
*>Letter>A	*>Letter>A	*>Letter>A	*>Letter>A	*>Letter>A	*>Letter>A	*>Letter>A	*>Letter>A	*>Letter>A	*>Letter>A
*>Label>Verse	*>Label>Verse	*>Label>Verse	*>Label>Verse	*>Label>Verse	*>Label>Verse	*>Label>Verse	*>Label>Verse	*>Label>Verse	*>Label>Verse
1Bm	B:min	4BB	Hey	1r	.	.	70.402	newline	voice
.	.	8D	li-	.	.	.	.	.	.
.	.	8D	-ttle	.	.	.	.	.	.
.	.	4F#	sis-	.	.	B	.	.	.
.	.	8F#	-ter	.	.	.	.	.	.
.	.	[8BB	who	.	.	.	.	.	.
=44	=44	=44	=44	=44	=44	=44	=44	=44	=44
1Bm	B:min	8BB]	_	1A	Ooh.	.	72.025	.	voice
.	.	4D	is	.	.	.	.	.	.
.	.	8D	it	.	.	.	.	.	.
.	.	4F#	you're	.	.	.	.	.	.
.	.	8E	with	.	.	.	.	.	.
.	.	[8D	with?.	.	.	B	.	.	.
=45	=45	=45	=45	=45	=45	=45	=45	=45	=45
1AM	A:maj	4D]	_	1G#	_	.	73.647	.	voice
.	.	2r	.	.	.	.	.	.	.
.	.	4r	.	.	.	.	.	.	.
=46	=46	=46	=46	=46	=46	=46	=46	=46	=46
1EM	E:maj	1r	.	2F#	_	.	75.269	.	voice
.	.	.	.	2r	.	.	.	.	.
=47	=47	=47	=47	=47	=47	=47	=47	=47	=47
1Bm	B:min	4BB	Hey	1r	.	.	76.892	newline	voice
.	.	8D	li-	.	.	.	.	.	.
.	.	8D	-ttle	.	.	.	.	.	.
.	.	4F#	sis-	.	.	B	.	.	.
.	.	8F#	-ter	.	.	.	.	.	.
.	.	[8A	what's	.	.	.	.	.	.
=48	=48	=48	=48	=48	=48	=48	=48	=48	=48
1Bm	B:min	8A]	_	2..A	Ooh.	.	78.525	.	voice
.	.	4F#	your	.	.	.	.	.	.
.	.	4E	vice	.	.	.	.	.	.
.	.	8F#	or	.	.	.	.	.	.
.	.	[4F#	wish?.	.	.	B	.	.	.
.	.	.	.	16G#	_	.	.	.	.
.	.	.	.	16A	_	.	.	.	.
=49	=49	=49	=49	=49	=49	=49	=49	=49	=49
1AM	A:maj	4F#]	_	2..G#	_	.	80.159	.	voice
.	.	2r	.	.	.	.	.	.	.
.	.	4r	.	.	.	.	.	.	.
.	.	.	.	16F#	_	.	.	.	.
.	.	.	.	16G#	_	.	.	.	.
=50	=50	=50	=50	=50	=50	=50	=50	=50	=50
1EM	E:maj	1r	.	2F#	_	.	81.792	.	voice
.	.	.	.	2r	.	.	.	.	.
=51	=51	=51	=51	=51	=51	=51	=51	=51	=51
1Bm	B:min	4BB	Hey	1r	.	.	83.426	newline	voice
.	.	8D	li-	.	.	.	.	.	.
.	.	8D	-ttle	.	.	.	.	.	.
.	.	4F#	sis-	.	.	.	.	.	.
.	.	8F#	-ter	.	.	.	.	.	.
.	.	[8A	shot-	.	.	.	.	.	.
=52	=52	=52	=52	=52	=52	=52	=52	=52	=52
1Bm	B:min	8A]	_	1r	.	.	85.052	.	voice
.	.	4F#	-gun.	.	.	.	.	.	.
.	.	4E	oh	.	.	.	.	.	.
.	.	8F#	_	.	.	.	.	.	.
.	.	4F#	yeah.	.	.	.	.	.	.
=53	=53	=53	=53	=53	=53	=53	=53	=53	=53
1AM	A:maj	4BB	Hey	1r	.	.	86.678	.	voice
.	.	8D	li-	.	.	.	.	.	.
.	.	8D	-ttle	.	.	.	.	.	.
.	.	4F#	sis-	.	.	.	.	.	.
.	.	8F#	-ter	.	.	.	.	.	.
.	.	[8A	who's	.	.	.	.	.	.
=54	=54	=54	=54	=54	=54	=54	=54	=54	=54
1AM	A:maj	8A]	_	1r	.	.	88.305	.	voice
.	.	4F#	your	.	.	.	.	.	.
.	.	4E	su-	.	.	.	.	.	.
.	.	8F#	-per-	.	.	.	.	.	.
.	.	4F#	-man?.	.	.	.	.	.	.
=55	=55	=55	=55	=55	=55	=55	=55	=55	=55
1Bm	B:min	4BB	Hey	1r	.	.	89.931	newline	voice
.	.	8D	li-	.	.	.	.	.	.
.	.	8D	-ttle	.	.	.	.	.	.
.	.	4F#	sis-	.	.	.	.	.	.
.	.	8F#	-ter	.	.	.	.	.	.
.	.	[8A	shot-	.	.	.	.	.	.
=56	=56	=56	=56	=56	=56	=56	=56	=56	=56
1Bm	B:min	8A]	_	1r	.	.	91.554	.	voice
.	.	8F#	-gun.	.	.	.	.	.	.
.	.	2r	.	.	.	.	.	.	.
.	.	8BB	It's	.	.	.	.	.	.
.	.	8BB	a	.	.	.	.	.	.
=57	=57	=57	=57	=57	=57	=57	=57	=57	=57
1AM	A:maj	4r	.	1r	.	.	93.176	.	voice
.	.	4D	nice	.	.	.	.	.	.
.	.	4D	day	.	.	.	.	.	.
.	.	[4BB	to	.	.	.	.	.	.
=58	=58	=58	=58	=58	=58	=58	=58	=58	=58
1EM	E:maj	4BB]	_	1r	.	.	94.798	.	voice
.	.	8r	.	.	.	.	.	.	.
.	.	4A	start	.	.	.	.	.	.
.	.	8F#	a-	.	.	.	.	.	.
.	.	8E	-gain.	.	.	.	.	.	.
.	.	[8F#	_	.	.	.	.	.	.
=59	=59	=59	=59	=59	=59	=59	=59	=59	=59
1Bm	B:min	4F#]	_	1r	.	.	96.421	newline	voice
.	.	2r	.	.	.	.	.	.	.
.	.	4r	.	.	.	.	.	.	.
=60	=60	=60	=60	=60	=60	=60	=60	=60	=60
1Bm	B:min	2r	.	1r	.	.	98.058	.	voice
.	.	4r	.	.	.	.	.	.	.
.	.	8D	It's	.	.	.	.	.	.
.	.	8BB	a	.	.	.	.	.	.
=61	=61	=61	=61	=61	=61	=61	=61	=61	=61
1EM	E:maj	4r	.	1r	.	.	99.696	.	voice
.	.	4D	nice	.	.	.	.	.	.
.	.	4D	day	.	.	.	.	.	.
.	.	8BB	for	.	.	.	.	.	.
.	.	8BB	a	.	.	.	.	.	.
=62	=62	=62	=62	=62	=62	=62	=62	=62	=62
1DM	D:maj	4r	.	1r	.	.	101.333	.	voice
.	.	4D	white	.	.	.	.	.	.
.	.	8D	wed-	.	.	.	.	.	.
.	.	[4.D	-ding.	.	.	.	.	.	.
=63	=63	=63	=63	=63	=63	=63	=63	=63	=63
1Bm	B:min	2D]	_	1r	.	.	102.971	newline	voice
.	.	2r	.	.	.	.	.	.	.
=64	=64	=64	=64	=64	=64	=64	=64	=64	=64
1Bm	B:min	2r	.	1r	.	.	104.599	.	voice
.	.	4r	.	.	.	.	.	.	.
.	.	8D	It's	.	.	.	.	.	.
.	.	8BB	a	.	.	.	.	.	.
=65	=65	=65	=65	=65	=65	=65	=65	=65	=65
1EM	E:maj	4r	.	1r	.	.	106.228	.	voice
.	.	4D	nice	.	.	.	.	.	.
.	.	4D	day	.	.	.	.	.	.
.	.	4BB	to	.	.	.	.	.	.
=66	=66	=66	=66	=66	=66	=66	=66	=66	=66
1DM	D:maj	4r	.	1r	.	.	107.856	.	voice
.	.	8r	.	.	.	.	.	.	.
.	.	4f#	start	.	.	.	.	.	.
.	.	8f#	a-	.	.	.	.	.	.
.	.	8e	-gain.	.	.	.	.	.	.
.	.	[8f#	_	.	.	.	.	.	.
=67	=67	=67	=67	=67	=67	=67	=67	=67	=67
1Bm	B:min	1f#]	_	1r	.	.	109.485	newline	voice
=68	=68	=68	=68	=68	=68	=68	=68	=68	=68
1Bm	B:min	[2B	_	1r	.	.	111.109	.	voice
.	.	8B]	_	.	.	.	.	.	.
.	.	4.B	ow!.	.	.	.	.	.	.
=69	=69	=69	=69	=69	=69	=69	=69	=69	=69
1Bm	B:min	1r	.	1r	.	.	112.733	.	voice
=70	=70	=70	=70	=70	=70	=70	=70	=70	=70
1Bm	B:min	1r	.	1r	.	.	114.358	.	voice
=71	=71	=71	=71	=71	=71	=71	=71	=71	=71
*>Letter>A2	*>Letter>A2	*>Letter>A2	*>Letter>A2	*>Letter>A2	*>Letter>A2	*>Letter>A2	*>Letter>A2	*>Letter>A2	*>Letter>A2
*>Label>Interlude	*>Label>Interlude	*>Label>Interlude	*>Label>Interlude	*>Label>Interlude	*>Label>Interlude	*>Label>Interlude	*>Label>Interlude	*>Label>Interlude	*>Label>Interlude
1Bm	B:min	1r	.	1r	.	.	115.982	newline	guitar
=72	=72	=72	=72	=72	=72	=72	=72	=72	=72
1Bm	B:min	1r	.	1r	.	.	117.604	.	guitar
=73	=73	=73	=73	=73	=73	=73	=73	=73	=73
1EM	E:maj	1r	.	1r	.	.	119.227	.	guitar
=74	=74	=74	=74	=74	=74	=74	=74	=74	=74
1DM	D:maj	1r	.	1r	.	.	120.849	.	guitar
=75	=75	=75	=75	=75	=75	=75	=75	=75	=75
1Bm	B:min	1r	.	1r	.	.	122.471	newline	guitar
=76	=76	=76	=76	=76	=76	=76	=76	=76	=76
1Bm	B:min	1r	.	1r	.	.	124.094	.	guitar
=77	=77	=77	=77	=77	=77	=77	=77	=77	=77
1DM	D:maj	1r	.	1r	.	.	125.717	.	guitar
=78	=78	=78	=78	=78	=78	=78	=78	=78	=78
1EM	E:maj	1r	.	1r	.	.	127.34	.	guitar
=79	=79	=79	=79	=79	=79	=79	=79	=79	=79
1Bm	B:min	1r	.	1r	.	.	128.963	newline	guitar
=80	=80	=80	=80	=80	=80	=80	=80	=80	=80
1Bm	B:min	1r	.	1r	.	.	130.606	.	guitar
=81	=81	=81	=81	=81	=81	=81	=81	=81	=81
1Bm	B:min/4	1r	.	1r	.	.	132.249	.	guitar
=82	=82	=82	=82	=82	=82	=82	=82	=82	=82
1Bm	B:min/4	1r	.	1r	.	.	133.892	.	guitar
=83	=83	=83	=83	=83	=83	=83	=83	=83	=83
1Bm	B:min	1r	.	1r	.	.	135.535	newline	guitar
=84	=84	=84	=84	=84	=84	=84	=84	=84	=84
1Bm	B:min	1r	.	1r	.	.	137.164	.	guitar
=85	=85	=85	=85	=85	=85	=85	=85	=85	=85
1DM	D:maj	1r	.	1r	.	.	138.792	.	guitar
=86	=86	=86	=86	=86	=86	=86	=86	=86	=86
1EM	E:maj	1r	.	1r	.	.	140.42	.	guitar
=87	=87	=87	=87	=87	=87	=87	=87	=87	=87
1Bmm	B:min9	1r	.	1r	.	.	142.049	newline	guitar
=88	=88	=88	=88	=88	=88	=88	=88	=88	=88
1Bmm	B:min9	2r	.	1r	.	.	143.673	.	guitar
.	.	8r	.	.	.	.	.	.	.
.	.	16~F#	Pick	.	.	.	.	.	.
.	.	16~F#	it	.	.	.	.	.	.
.	.	4~BB	up!.	.	.	.	.	.	.
=89	=89	=89	=89	=89	=89	=89	=89	=89	=89
1AM	A:maj	2r	.	1r	.	.	145.298	.	guitar
.	.	4r	.	.	.	.	.	.	.
.	.	8r	.	.	.	.	.	.	.
.	.	[8d	Take	.	.	.	.	.	.
=90	=90	=90	=90	=90	=90	=90	=90	=90	=90
1EM	E:maj	8d]	_	1r	.	.	146.922	.	guitar
.	.	8B	my	.	.	.	.	.	.
.	.	4B	back	.	.	.	.	.	.
.	.	4B	home	.	.	.	.	.	.
.	.	4d	yeah.	.	.	.	.	.	.
=91	=91	=91	=91	=91	=91	=91	=91	=91	=91
1Bm	B:min	1r	.	1r	.	.	148.547	newline	guitar
=92	=92	=92	=92	=92	=92	=92	=92	=92	=92
1Bm	B:min	1r	.	1r	.	.	150.178	.	guitar
=93	=93	=93	=93	=93	=93	=93	=93	=93	=93
*>Letter>B	*>Letter>B	*>Letter>B	*>Letter>B	*>Letter>B	*>Letter>B	*>Letter>B	*>Letter>B	*>Letter>B	*>Letter>B
*>Label>Verse	*>Label>Verse	*>Label>Verse	*>Label>Verse	*>Label>Verse	*>Label>Verse	*>Label>Verse	*>Label>Verse	*>Label>Verse	*>Label>Verse
1Bm	B:min	4BB	Hey	1r	.	.	151.81	newline	voice
.	.	8D	li-	.	.	.	.	.	.
.	.	8D	-ttle	.	.	.	.	.	.
.	.	4F#	sis-	.	.	.	.	.	.
.	.	8F#	-ter	.	.	.	.	.	.
.	.	[8BB	what	.	.	.	.	.	.
=94	=94	=94	=94	=94	=94	=94	=94	=94	=94
1Bm	B:min	8BB]	_	1A	Ooh.	.	153.441	.	voice
.	.	4D	have	.	.	.	.	.	.
.	.	4F#	you	.	.	.	.	.	.
.	.	4E	done?.	.	.	.	.	.	.
.	.	[8D	_	.	.	.	.	.	.
=95	=95	=95	=95	=95	=95	=95	=95	=95	=95
1AM	A:maj	2D]	_	1G#	_	.	155.073	.	voice
.	.	2r	.	.	.	.	.	.	.
=96	=96	=96	=96	=96	=96	=96	=96	=96	=96
1EM	E:maj	1r	.	2F#	_	.	156.705	.	voice
.	.	.	.	2r	.	.	.	.	.
=97	=97	=97	=97	=97	=97	=97	=97	=97	=97
1Bm	B:min	4BB	Hey	2r	.	.	158.337	newline	voice
.	.	8D	li-	.	.	.	.	.	.
.	.	8D	-ttle	.	.	.	.	.	.
.	.	4F#	sis-	4r	.	.	.	.	.
.	.	8F#	-ter	8r	.	.	.	.	.
.	.	[8A	who's	[8A	On-	.	.	.	.
=98	=98	=98	=98	=98	=98	=98	=98	=98	=98
1Bm	B:min	8A]	_	8A]	_	.	159.975	.	voice
.	.	4F#	the	4F#	-ly	.	.	.	.
.	.	4E	on-	4A	on-	.	.	.	.
.	.	8F#	-ly	4F#	-ly	.	.	.	.
.	.	[4F#	one?.	.	.	.	.	.	.
.	.	.	.	[8A	on-	.	.	.	.
=99	=99	=99	=99	=99	=99	=99	=99	=99	=99
1AM	A:maj	4F#]	_	8A]	_	.	161.612	.	voice
.	.	.	.	4F#	-ly	.	.	.	.
.	.	2r	.	.	.	.	.	.	.
.	.	.	.	4A	on-	.	.	.	.
.	.	.	.	8F#	-ly	.	.	.	.
.	.	4r	.	[4F#	one.	.	.	.	.
=100	=100	=100	=100	=100	=100	=100	=100	=100	=100
1EM	E:maj	1r	.	2F#]	_	.	163.25	.	voice
.	.	.	.	2r	.	.	.	.	.
=101	=101	=101	=101	=101	=101	=101	=101	=101	=101
1Bm	B:min	4BB	I've	4r	.	.	164.887	newline	voice
.	.	8D	been	8r	.	.	.	.	.
.	.	8D	a-	4A	So	.	.	.	.
.	.	4F#	-way	.	.	.	.	.	.
.	.	.	.	4.F#	long.	.	.	.	.
.	.	8F#	for	.	.	.	.	.	.
.	.	[8A	so	.	.	.	.	.	.
=102	=102	=102	=102	=102	=102	=102	=102	=102	=102
1Bm	B:min	8A]	_	1r	.	.	166.5	.	voice
.	.	4F#	long.	.	.	.	.	.	.
.	.	2r	.	.	.	.	.	.	.
.	.	8r	.	.	.	.	.	.	.
=103	=103	=103	=103	=103	=103	=103	=103	=103	=103
1AM	A:maj	4BB	I've	4r	.	.	168.113	.	voice
.	.	8D	been	8r	.	.	.	.	.
.	.	8D	a-	4A	So	.	.	.	.
.	.	4F#	-way	.	.	.	.	.	.
.	.	.	.	4F#	long.	.	.	.	.
.	.	8F#	for	.	.	.	.	.	.
.	.	[8A	so	8E	_	.	.	.	.
=104	=104	=104	=104	=104	=104	=104	=104	=104	=104
1AM	A:maj	8A]	_	1r	.	.	169.726	.	voice
.	.	4F#	long.	.	.	.	.	.	.
.	.	2r	.	.	.	.	.	.	.
.	.	8r	.	.	.	.	.	.	.
=105	=105	=105	=105	=105	=105	=105	=105	=105	=105
1Bm	B:min	4BB	I	1r	.	.	171.338	newline	voice
.	.	8D	let	.	.	.	.	.	.
.	.	8D	you	.	.	.	.	.	.
.	.	4F#	go	.	.	.	.	.	.
.	.	8F#	for	.	.	.	.	.	.
.	.	[8A	so	.	.	.	.	.	.
=106	=106	=106	=106	=106	=106	=106	=106	=106	=106
1Bm	B:min	8A]	_	1r	.	.	172.967	.	voice
.	.	4F#	long.	.	.	.	.	.	.
.	.	4r	.	.	.	.	.	.	.
.	.	8r	.	.	.	.	.	.	.
.	.	8BB	It's	.	.	.	.	.	.
.	.	8BB	a	.	.	.	.	.	.
=107	=107	=107	=107	=107	=107	=107	=107	=107	=107
1AM	A:maj	4r	.	1r	.	.	174.595	.	voice
.	.	4D	nice	.	.	.	.	.	.
.	.	4D	day	.	.	.	.	.	.
.	.	4BB	to	.	.	.	.	.	.
=108	=108	=108	=108	=108	=108	=108	=108	=108	=108
1EM	E:maj	4r	.	1r	.	.	176.224	.	voice
.	.	8r	.	.	.	.	.	.	.
.	.	4A	start	.	.	.	.	.	.
.	.	8F#	a-	.	.	.	.	.	.
.	.	8E	-gain.	.	.	.	.	.	.
.	.	[8F#	_	.	.	.	.	.	.
=109	=109	=109	=109	=109	=109	=109	=109	=109	=109
1Bm	B:min	4F#]	_	1r	.	.	177.852	newline	voice
.	.	2r	.	.	.	.	.	.	.
.	.	4r	.	.	.	.	.	.	.
=110	=110	=110	=110	=110	=110	=110	=110	=110	=110
1Bm	B:min	4r	.	1r	.	.	179.476	.	voice
.	.	8D	Come	.	.	.	.	.	.
.	.	4.D	on!.	.	.	.	.	.	.
.	.	8BB	It's	.	.	.	.	.	.
.	.	8BB	a	.	.	.	.	.	.
=111	=111	=111	=111	=111	=111	=111	=111	=111	=111
1EM	E:maj	4r	.	1r	.	.	181.101	.	voice
.	.	4D	nice	.	.	.	.	.	.
.	.	4D	day	.	.	.	.	.	.
.	.	8BB	for	.	.	.	.	.	.
.	.	8BB	a	.	.	.	.	.	.
=112	=112	=112	=112	=112	=112	=112	=112	=112	=112
1DM	D:maj	4r	.	1r	.	.	182.725	.	voice
.	.	4D	white	.	.	.	.	.	.
.	.	8D	wed-	.	.	.	.	.	.
.	.	[4.D	-ding.	.	.	.	.	.	.
=113	=113	=113	=113	=113	=113	=113	=113	=113	=113
1Bm	B:min	2D]	_	1r	.	.	184.35	newline	voice
.	.	2r	.	.	.	.	.	.	.
=114	=114	=114	=114	=114	=114	=114	=114	=114	=114
1Bm	B:min	2r	.	1r	.	.	185.989	.	voice
.	.	4r	.	.	.	.	.	.	.
.	.	8D	It's	.	.	.	.	.	.
.	.	8BB	a	.	.	.	.	.	.
=115	=115	=115	=115	=115	=115	=115	=115	=115	=115
1EM	E:maj	4r	.	1r	.	.	187.628	.	voice
.	.	4D	nice	.	.	.	.	.	.
.	.	4D	day	.	.	.	.	.	.
.	.	4BB	to	.	.	.	.	.	.
=116	=116	=116	=116	=116	=116	=116	=116	=116	=116
1DM	D:maj	4r	.	1r	.	.	189.268	.	voice
.	.	8r	.	.	.	.	.	.	.
.	.	4f#	start	.	.	.	.	.	.
.	.	8f#	a-	.	.	.	.	.	.
.	.	8e	-gain.	.	.	.	.	.	.
.	.	[8f#	_	.	.	.	.	.	.
=117	=117	=117	=117	=117	=117	=117	=117	=117	=117
1Bm	B:min	1f#]	_	1r	.	.	190.907	newline	voice
=118	=118	=118	=118	=118	=118	=118	=118	=118	=118
1Bm	B:min	[2B	_	1r	.	.	192.534	.	voice
.	.	8B]	_	.	.	.	.	.	.
.	.	4.B	ow!.	.	.	.	.	.	.
=119	=119	=119	=119	=119	=119	=119	=119	=119	=119
1Bm	B:min	1r	.	1r	.	.	194.161	.	voice
=120	=120	=120	=120	=120	=120	=120	=120	=120	=120
1Bm	B:min	2r	.	1r	.	.	195.787	.	voice
.	.	4r	.	.	.	.	.	.	.
.	.	8BB	There	.	.	.	.	.	.
.	.	8D	is	.	.	.	.	.	.
=121	=121	=121	=121	=121	=121	=121	=121	=121	=121
*>Letter>C	*>Letter>C	*>Letter>C	*>Letter>C	*>Letter>C	*>Letter>C	*>Letter>C	*>Letter>C	*>Letter>C	*>Letter>C
*>Label>Verse	*>Label>Verse	*>Label>Verse	*>Label>Verse	*>Label>Verse	*>Label>Verse	*>Label>Verse	*>Label>Verse	*>Label>Verse	*>Label>Verse
1Bm	B:min	8F#	no-	1r	.	.	197.414	newline	voice
.	.	4F#	-thing	.	.	.	.	.	.
.	.	4F#	fair	.	.	.	.	.	.
.	.	8E	in	.	.	.	.	.	.
.	.	4D	this	.	.	.	.	.	.
=122	=122	=122	=122	=122	=122	=122	=122	=122	=122
1Bm	B:min	8BB	world	1r	.	.	199.034	.	voice
.	.	4.AA	_	.	.	.	.	.	.
.	.	8AA	World.	.	.	.	.	.	.
.	.	4.BB	_	.	.	.	.	.	.
=123	=123	=123	=123	=123	=123	=123	=123	=123	=123
1Bm	B:min	1r	.	1r	.	.	200.654	.	voice
=124	=124	=124	=124	=124	=124	=124	=124	=124	=124
1Bm	B:min	2r	.	1r	.	.	202.275	.	voice
.	.	4r	.	.	.	.	.	.	.
.	.	8BB	There	.	.	.	.	.	.
.	.	8D	is	.	.	.	.	.	.
=125	=125	=125	=125	=125	=125	=125	=125	=125	=125
1Bm	B:min	8F#	no-	1r	.	.	203.895	newline	voice
.	.	4F#	-thing	.	.	.	.	.	.
.	.	4F#	safe	.	.	.	.	.	.
.	.	4E	in	.	.	.	.	.	.
.	.	[8A	this	.	.	.	.	.	.
=126	=126	=126	=126	=126	=126	=126	=126	=126	=126
1Bm	B:min	4A]	_	1r	.	.	205.527	.	voice
.	.	8F#	world.	.	.	.	.	.	.
.	.	[4.E	_	.	.	.	.	.	.
.	.	4E]	_	.	.	.	.	.	.
=127	=127	=127	=127	=127	=127	=127	=127	=127	=127
1Bm	B:min	1r	.	1r	.	.	207.16	.	voice
=128	=128	=128	=128	=128	=128	=128	=128	=128	=128
1Bm	B:min	2r	.	1r	.	.	208.792	.	voice
.	.	8r	.	.	.	.	.	.	.
.	.	8.F#	And	.	.	.	.	.	.
.	.	8.F#	there's	.	.	.	.	.	.
=129	=129	=129	=129	=129	=129	=129	=129	=129	=129
1Bm	B:min	8A	no-	1r	.	.	210.424	newline	voice
.	.	4F#	-thing	.	.	.	.	.	.
.	.	4A	sure	.	.	.	.	.	.
.	.	8F#	in	.	.	.	.	.	.
.	.	4A	this	.	.	.	.	.	.
=130	=130	=130	=130	=130	=130	=130	=130	=130	=130
1Bm	B:min	8F#	world.	1r	.	.	212.056	.	voice
.	.	4E	_	.	.	.	.	.	.
.	.	4r	.	.	.	.	.	.	.
.	.	8F#	And	.	.	.	.	.	.
.	.	4F#	there's	.	.	.	.	.	.
=131	=131	=131	=131	=131	=131	=131	=131	=131	=131
1Bm	B:min	8A	no-	1r	.	.	213.687	.	voice
.	.	4F#	-thing	.	.	.	.	.	.
.	.	4A	pure	.	.	.	.	.	.
.	.	8F#	in	.	.	.	.	.	.
.	.	4A	this	.	.	.	.	.	.
=132	=132	=132	=132	=132	=132	=132	=132	=132	=132
1Bm	B:min	8F#	world.	1r	.	.	215.319	.	voice
.	.	4E	_	.	.	.	.	.	.
.	.	8r	.	.	.	.	.	.	.
.	.	16r	.	.	.	.	.	.	.
.	.	16F#	and	.	.	.	.	.	.
.	.	4F#	if	.	.	.	.	.	.
.	.	8F#	there's	.	.	.	.	.	.
=133	=133	=133	=133	=133	=133	=133	=133	=133	=133
1Bm	B:min	8A	some-	1r	.	.	216.951	newline	voice
.	.	4F#	-thing	.	.	.	.	.	.
.	.	4A	left	.	.	.	.	.	.
.	.	8F#	in	.	.	.	.	.	.
.	.	4A	this	.	.	.	.	.	.
=134	=134	=134	=134	=134	=134	=134	=134	=134	=134
1Bm	B:min	2B	world.	1r	.	.	218.586	.	voice
.	.	4.d	_	.	.	.	.	.	.
.	.	[8B	_	.	.	.	.	.	.
=135	=135	=135	=135	=135	=135	=135	=135	=135	=135
1EM	E:maj	2B]	_	1r	.	.	220.222	.	voice
.	.	2r	.	.	.	.	.	.	.
=136	=136	=136	=136	=136	=136	=136	=136	=136	=136
1DM	D:maj	4r	.	1r	.	.	221.857	.	voice
.	.	8r	.	.	.	.	.	.	.
.	.	4f#	start	.	.	.	.	.	.
.	.	8f#	a-	.	.	.	.	.	.
.	.	8e	-gain.	.	.	.	.	.	.
.	.	[8f#	_	.	.	.	.	.	.
=137	=137	=137	=137	=137	=137	=137	=137	=137	=137
1Bm	B:min	1f#]	_	1r	.	.	223.493	newline	voice
=138	=138	=138	=138	=138	=138	=138	=138	=138	=138
1Bm	B:min	4B	_	1r	.	.	225.12	.	voice
.	.	8d	Come	.	.	.	.	.	.
.	.	4.d	on!.	.	.	.	.	.	.
.	.	8B	It's	.	.	.	.	.	.
.	.	[8B	a	.	.	.	.	.	.
=139	=139	=139	=139	=139	=139	=139	=139	=139	=139
1DM	D:maj	4B]	_	1r	.	.	226.747	.	voice
.	.	4d	nice	.	.	.	.	.	.
.	.	4d	day	.	.	.	.	.	.
.	.	8B	for	.	.	.	.	.	.
.	.	8B	a	.	.	.	.	.	.
=140	=140	=140	=140	=140	=140	=140	=140	=140	=140
1EM	E:maj	4r	.	1r	.	.	228.374	.	voice
.	.	4D	white	.	.	.	.	.	.
.	.	8D	wed-	.	.	.	.	.	.
.	.	[4.D	-ding	.	.	.	.	.	.
=141	=141	=141	=141	=141	=141	=141	=141	=141	=141
1Bm	B:min	4.D]	_	1r	.	.	230.001	newline	voice
.	.	8BB	uh.	.	.	.	.	.	.
.	.	4r	.	.	.	.	.	.	.
.	.	8r	.	.	.	.	.	.	.
.	.	[8b	Wooh.	.	.	.	.	.	.
=142	=142	=142	=142	=142	=142	=142	=142	=142	=142
1Bm	B:min	2b]	_	1r	.	.	231.631	.	voice
.	.	4B	_	.	.	.	.	.	.
.	.	8B	It's	.	.	.	.	.	.
.	.	8B	a	.	.	.	.	.	.
=143	=143	=143	=143	=143	=143	=143	=143	=143	=143
1EM	E:maj	4r	.	1r	.	.	233.261	.	voice
.	.	4D	nice	.	.	.	.	.	.
.	.	4D#	day	.	.	.	.	.	.
.	.	4BB	to	.	.	.	.	.	.
=144	=144	=144	=144	=144	=144	=144	=144	=144	=144
1DM	D:maj	4r	.	1r	.	.	234.891	.	voice
.	.	8r	.	.	.	.	.	.	.
.	.	4f#	start	.	.	.	.	.	.
.	.	8f#	a-	.	.	.	.	.	.
.	.	8e	-gain.	.	.	.	.	.	.
.	.	[8f#	_	.	.	.	.	.	.
=145	=145	=145	=145	=145	=145	=145	=145	=145	=145
*>Label>>Fadeout	*>Label>>Fadeout	*>Label>>Fadeout	*>Label>>Fadeout	*>Label>>Fadeout	*>Label>>Fadeout	*>Label>>Fadeout	*>Label>>Fadeout	*>Label>>Fadeout	*>Label>>Fadeout
1Bm	B:min	1f#]	_	1r	.	.	236.521	newline	voice
=146	=146	=146	=146	=146	=146	=146	=146	=146	=146
1Bm	B:min	2.B	_	1r	.	.	238.148	.	voice
.	.	8d	It's	.	.	.	.	.	.
.	.	8B	a	.	.	.	.	.	.
=147	=147	=147	=147	=147	=147	=147	=147	=147	=147
1EM	E:maj	4r	.	1r	.	.	239.775	.	voice
.	.	4d	nice	.	.	.	.	.	.
.	.	4d#	day	.	.	.	.	.	.
.	.	4B	to	.	.	.	.	.	.
=148	=148	=148	=148	=148	=148	=148	=148	=148	=148
1DM	D:maj	4r	.	1r	.	.	241.402	.	voice
.	.	8r	.	.	.	.	.	.	.
.	.	4f#	start	.	.	.	.	.	.
.	.	8f#	a-	.	.	.	.	.	.
.	.	8e	-gain.	.	.	.	.	.	.
.	.	[8f#	_	.	.	.	.	.	.
=149	=149	=149	=149	=149	=149	=149	=149	=149	=149
1Bm	B:min	1f#]	_	1r	.	.	243.03	newline	voice
=150	=150	=150	=150	=150	=150	=150	=150	=150	=150
1Bm	B:min	2.B	_	1r	.	.	244.613	.	voice
.	.	8d	It's	.	.	.	.	.	.
.	.	8B	a	.	.	.	.	.	.
=151	=151	=151	=151	=151	=151	=151	=151	=151	=151
1EM	E:maj	4r	.	1r	.	.	246.196	.	voice
.	.	4d	nice	.	.	.	.	.	.
.	.	4d#	day	.	.	.	.	.	.
.	.	4B	to	.	.	.	.	.	.
=152	=152	=152	=152	=152	=152	=152	=152	=152	=152
1DM	D:maj	4r	.	1r	.	.	247.779	.	voice
.	.	8r	.	.	.	.	.	.	.
.	.	4f#	start	.	.	.	.	.	.
.	.	8f#	a-	.	.	.	.	.	.
.	.	8e	-gain.	.	.	.	.	.	.
.	.	8f#	_	.	.	.	.	.	.
1r;	1r	r;	.	r;	.	.	249.361	.	r
1r;	1r	r;	.	r;	.	.	253.382	.	r
*-	*-	*-	*-	*-	*-	*-	*-	*-	*-
!!!BillboardChartDate: 1983/07/23, 1983/07/02
!!!BillboardPeak: 36, 36
!!!BillboardWeeksOnChart: 13, 13
!!!COC: Billy Idol
!!!ENC: Nathaniel Condit-Schultz
!!!EST: Awating manual error checking and editing.
!!!OTL: White Wedding
!!!RDF**chordsym: original McGill chord annotation + (implied pitch class set, with bass pitch in first position)
!!!RDF**harmony: **recip + pitch class of root + harmonic quality
!!!RDF**leadinstrument: original McGill primary instrumentation annotation
!!!RDF**phrase: newline = linebreak in original McGill transcription
!!!RDF**timestamp: McGill audio timestamp in seconds
!!!RDT: 2017/01/12/
!!!SampleActualRank: 55, 36
!!!SampleID#: 701, 1296
!!!SampleTargetRank: 54, 34
!!!MBID: fe62befc-751d-4b37-a20f-d10155e843b4
